Adwaita++/actions/22/flag.svg

<svg height="22" viewBox="0 0 22 22" width="22" xmlns="http://www.w3.org/2000/svg">
  <path d="m2 0v16h2v-9h3l1 2h6v-7h-4l-1-2h-5z" fill="#444" transform="translate(3 3)"/>
</svg>

<svg xmlns="http://www.w3.org/2000/svg" width="22" height="22" viewBox="0 0 22 22">
 <defs>
  <style id="current-color-scheme" type="text/css">
   .ColorScheme-Text { color:#444444; } .ColorScheme-Highlight { color:#4285f4; }
  </style>
 </defs>
 <path style="fill:currentColor" class="ColorScheme-Text" d="M 2 0 L 2 16 L 4 16 L 4 7 L 7 7 L 8 9 L 14 9 L 14 2 L 10 2 L 9 0 L 4 0 L 2 0 z" transform="translate(3 3)"/>
</svg>
